icons/24x24_note_filed.svg

<svg xmlns="http://www.w3.org/2000/svg" width="24" height="24" viewBox="0 0 24 24">
  <path fill-rule="evenodd" d="M6,2 L18,2 C19.1045695,2 20,2.8954305 20,4 L20,20 C20,21.1045695 19.1045695,22 18,22 L6,22 C4.8954305,22 4,21.1045695 4,20 L4,4 C4,2.8954305 4.8954305,2 6,2 Z M9,7 C8.44771525,7 8,7.44771525 8,8 C8,8.55228475 8.44771525,9 9,9 L15,9 C15.5522847,9 16,8.55228475 16,8 C16,7.44771525 15.5522847,7 15,7 L9,7 Z M9,11 C8.44771525,11 8,11.4477153 8,12 C8,12.5522847 8.44771525,13 9,13 L15,13 C15.5522847,13 16,12.5522847 16,12 C16,11.4477153 15.5522847,11 15,11 L9,11 Z M9,15 C8.44771525,15 8,15.4477153 8,16 C8,16.5522847 8.44771525,17 9,17 L15,17 C15.5522847,17 16,16.5522847 16,16 C16,15.4477153 15.5522847,15 15,15 L9,15 Z"/>
</svg>

<svg width="24" height="24" fill="none" xmlns="http://www.w3.org/2000/svg"><path fill-rule="evenodd" clip-rule="evenodd" d="M6 2h12a2 2 0 0 1 2 2v16a2 2 0 0 1-2 2H6a2 2 0 0 1-2-2V4a2 2 0 0 1 2-2Zm3 5a1 1 0 0 0 0 2h6a1 1 0 1 0 0-2H9Zm0 4a1 1 0 1 0 0 2h6a1 1 0 1 0 0-2H9Zm0 4a1 1 0 1 0 0 2h6a1 1 0 1 0 0-2H9Z" fill="#000"/></svg>
